X:441
T:Reel 441
M:4/4
K:Gmaj
L:1/8
Bc|d>G (3GFG BcAB|GB (3BcB ABcA|d>B (3BAB GBAB|cAFA GBcA|dcBG ABcA|d>D (3BAG gbag|fdcA BAAF|DGGF G2|GA|Bggg fgdc|BcdB gdcA|BABd cAag|fdcA BGcA|B>G (3GGG gedc|BGdB gdde|fgaf gedc|BGAF G2|
